images/traning-8.svg

<svg width="63" height="63" viewBox="0 0 63 63" fill="none" xmlns="http://www.w3.org/2000/svg">
<path d="M56.7086 19.6805C57.4414 20.4133 57.4414 21.6123 56.7086 22.3451L54.4479 24.6058L59.4065 29.5644L55.2514 33.7195L53.7943 32.2623C52.616 31.084 50.6963 31.0878 49.5222 32.2618C48.344 33.4401 48.3444 35.3557 49.5226 36.5339L50.9798 37.9911L46.8289 42.142L42.6739 37.9869L44.1223 36.5385C44.1265 36.5343 44.1265 36.5343 44.1265 36.5343L44.1352 36.5256C45.3089 35.3519 45.3093 33.428 44.1352 32.2539C42.957 31.0757 41.0372 31.0803 39.8636 32.2539L38.4022 33.7153L34.243 29.5561L39.1933 24.6058L36.9367 22.3493C36.1998 21.6123 36.1994 20.4137 36.9367 19.6764C37.3031 19.31 37.7861 19.1268 38.269 19.1268C38.752 19.1268 39.2349 19.31 39.6055 19.6805L41.862 21.9371L46.8206 16.9785L51.7792 21.9371L54.0399 19.6764C54.7726 18.9436 55.9717 18.9436 56.7086 19.6805Z" fill="#FF8901"/>
<path d="M43.3231 33.0662C44.0559 33.7989 44.06 34.9938 43.3231 35.7307L41.0624 37.9914L46.021 42.95L41.0707 47.9003L43.3314 50.161C44.0683 50.8979 44.0642 52.0928 43.3314 52.8256C42.5945 53.5625 41.3955 53.5625 40.6627 52.8297L38.402 50.569L33.4434 55.5276L28.4848 50.569L26.2241 52.8297C25.4913 53.5625 24.2923 53.5625 23.5595 52.8297C22.8222 52.0924 22.8226 50.8938 23.5554 50.161L25.8161 47.9003L20.8575 42.9417L25.8161 37.9831L23.5595 35.7266C22.8226 34.9897 22.8185 33.7948 23.5554 33.0578C24.2881 32.3251 25.483 32.3293 26.2199 33.0662L28.4765 35.3227L33.4351 30.3641L38.3937 35.3227L40.6544 33.062C41.3913 32.3251 42.5862 32.3293 43.3231 33.0662Z" fill="#1D5C73"/>
<path d="M22.7473 26.8625C23.9256 28.0407 25.8407 28.0407 27.019 26.8625L28.4762 25.4053L32.6354 29.5645L28.4887 33.7112L27.0315 32.2541C25.8532 31.0758 23.9339 31.08 22.7598 32.2541C22.7557 32.2582 22.7557 32.2582 22.7557 32.2582C22.7515 32.2624 22.7515 32.2624 22.7515 32.2624C21.5733 33.4406 21.5733 35.3558 22.7515 36.534L24.2087 37.9912L20.0495 42.1504L15.0909 37.1918L12.8302 39.4525C12.0974 40.1853 10.8984 40.1853 10.1656 39.4525C9.4287 38.7156 9.4287 37.5166 10.1615 36.7838L12.4222 34.5231L7.46358 29.5645L12.4222 24.6059L10.1615 22.3452C9.4287 21.6125 9.4287 20.4134 10.1656 19.6765C10.8984 18.9437 12.0974 18.9437 12.8302 19.6765L15.0909 21.9372L20.0495 16.9786L24.2087 21.1378L22.7515 22.595C21.5733 23.7733 21.5733 25.6884 22.7473 26.8625Z" fill="#FF8901"/>
<path d="M36.1288 13.4811C37.307 14.6594 39.2267 14.6548 40.4004 13.4811L41.8621 12.0194L46.0214 16.1786L41.8663 20.3336L40.4091 18.8765C39.8179 18.2853 39.0435 17.9938 38.2691 17.9938C37.4943 17.9942 36.7245 18.2894 36.1375 18.8765C34.9593 20.0547 34.9593 21.9699 36.1375 23.1481L37.5947 24.6053L33.4355 28.7645L28.4769 23.8059L26.2162 26.0666C25.4834 26.7994 24.2844 26.7994 23.5474 26.0625C22.8147 25.3297 22.8147 24.1306 23.5474 23.3979L25.8082 21.1372L20.8496 16.1786L25.8082 11.22L23.5474 8.95929C22.8147 8.22653 22.8143 7.0279 23.5516 6.29056C24.2844 5.55781 25.4834 5.55781 26.2162 6.29056L28.4769 8.55128L33.4355 3.59269L37.5947 7.75191L36.1329 9.21367C34.9588 10.3877 34.9547 12.3071 36.1288 13.4811Z" fill="#1D5C73"/>
</svg>

<svg width="63" height="63" fill="none" xmlns="http://www.w3.org/2000/svg"><path d="M56.709 19.68a1.89 1.89 0 010 2.665l-2.261 2.26 4.959 4.96-4.156 4.154-1.457-1.457a3.027 3.027 0 00-4.272 0 3.024 3.024 0 000 4.272l1.458 1.457-4.151 4.151-4.155-4.155 1.448-1.449.005-.004.008-.008a3.03 3.03 0 000-4.272 3.027 3.027 0 00-4.271 0l-1.462 1.461-4.159-4.159 4.95-4.95-2.256-2.257a1.892 1.892 0 010-2.673 1.886 1.886 0 012.669.004l2.256 2.257 4.959-4.959 4.958 4.96 2.26-2.262a1.89 1.89 0 012.67.005z" fill="#FF8901"/><path d="M43.323 33.066a1.886 1.886 0 010 2.665l-2.26 2.26 4.958 4.959-4.95 4.95 2.26 2.261a1.886 1.886 0 01-2.668 2.669l-2.261-2.261-4.959 4.959-4.958-4.959-2.26 2.26a1.89 1.89 0 01-2.666 0 1.89 1.89 0 01-.004-2.668l2.261-2.26-4.958-4.96 4.958-4.958-2.256-2.256a1.887 1.887 0 01-.005-2.67 1.886 1.886 0 012.665.01l2.257 2.256 4.958-4.959 4.959 4.959 2.26-2.261a1.887 1.887 0 012.67.004z" fill="#1D5C73"/><path d="M22.747 26.863a3.023 3.023 0 004.272 0l1.457-1.458 4.16 4.16-4.147 4.146-1.457-1.457a3.027 3.027 0 00-4.272 0l-.004.004-.005.004a3.023 3.023 0 000 4.272l1.458 1.457-4.16 4.16-4.958-4.96-2.26 2.261a1.89 1.89 0 01-2.665 0 1.89 1.89 0 01-.005-2.668l2.261-2.26-4.958-4.96 4.958-4.958-2.26-2.26a1.89 1.89 0 01.004-2.67 1.89 1.89 0 012.664 0l2.26 2.261 4.96-4.958 4.159 4.159-1.457 1.457a3.022 3.022 0 00-.005 4.268z" fill="#FF8901"/><path d="M36.129 13.481a3.027 3.027 0 004.271 0l1.462-1.462 4.16 4.16-4.156 4.155-1.457-1.457a3.013 3.013 0 00-2.14-.883c-.775 0-1.544.295-2.131.883a3.023 3.023 0 000 4.271l1.457 1.457-4.16 4.16-4.958-4.96-2.26 2.262a1.891 1.891 0 01-2.67-.005 1.89 1.89 0 010-2.664l2.261-2.26-4.958-4.96 4.958-4.958-2.26-2.26a1.89 1.89 0 01.004-2.67 1.89 1.89 0 012.664 0l2.26 2.261 4.96-4.958 4.159 4.159-1.462 1.462a3.025 3.025 0 00-.004 4.267z" fill="#1D5C73"/></svg>
